projgeom/figs/orthocenter2 - Copy.svg

<?xml version="1.0" encoding="iso-8859-1" standalone="no"?> 
<?xml-stylesheet href="TE_export636161384928920110.css" type="text/css"?> 
<svg xmlns="http://www.w3.org/2000/svg" xmlns:xlink="http://www.w3.org/1999/xlink" width="365pt" height="274pt" viewBox="-48.94337 -41.85732 182.67117 137.17395 "> 
<g transform="translate(0, 95.31664 ) scale(1,-1) translate(0,41.85732 )"> 
               <g> 
 <g stroke="rgb(0.0%,0.0%,0.0%)"> 
 <g fill="rgb(0.0%,0.0%,0.0%)"> 
 <g stroke-width="0.4pt"> 
 <g> 
 <g stroke-linecap="round"> 
 <g stroke-linejoin="round"> 
 <g> 
 <g stroke="rgb(75.2945%,75.2945%,75.2945%)"> 
 <g fill="rgb(75.2945%,75.2945%,75.2945%)"> 
 <path d=" M  -48.74338 -41.65732 M  -48.74338 -28.45274 L  132.98605 -28.45274 M  -48.74338 -14.22636 L  132.98605 -14.22636 M  -48.74338 0.0 L  132.98605 0.0 M  -48.74338 14.22636 L  132.98605 14.22636 M  -48.74338 28.45274 L  132.98605 28.45274 M  -48.74338 42.67911 L  132.98605 42.67911 M  -48.74338 56.90549 L  132.98605 56.90549 M  -48.74338 71.13185 L  132.98605 71.13185 M  -48.74338 85.35823 L  132.98605 85.35823 M  -42.67911 -41.65732 L  -42.67911 94.20499 M  -28.45274 -41.65732 L  -28.45274 94.20499 M  -14.22636 -41.65732 L  -14.22636 94.20499 M  0.0 -41.65732 L  0.0 94.20499 M  14.22636 -41.65732 L  14.22636 94.20499 M  28.45274 -41.65732 L  28.45274 94.20499 M  42.67911 -41.65732 L  42.67911 94.20499 M  56.90549 -41.65732 L  56.90549 94.20499 M  71.13185 -41.65732 L  71.13185 94.20499 M  85.35823 -41.65732 L  85.35823 94.20499 M  99.5846 -41.65732 L  99.5846 94.20499 M  113.81097 -41.65732 L  113.81097 94.20499 M  128.03734 -41.65732 L  128.03734 94.20499  " style="fill:none"/> 
 </g> 
 </g> 
 </g> 
 <clipPath id="pgfcp1"> <path d=" M  -48.74338 -41.65732 M  -48.74338 -41.65732 L  -48.74338 95.31664 L  133.7278 95.31664 L  133.7278 -41.65732 Z M  133.7278 95.31664  "/> 
</clipPath> 
 <g clip-path="url(#pgfcp1)"> 
 <g> 
 <g stroke="rgb(0.0%,39.21509%,0.0%)"> 
 <g fill="rgb(0.0%,39.21509%,0.0%)"> 
 <g fill="rgb(0.0%,39.21509%,0.0%)"> 
 <g fill-opacity="0.1"> 
 <path d=" M  48.44815 50.37123 L  52.13716 47.60437 L  54.90402 51.29338 L  51.21501 54.06024 Z  " /> 
 </g> 
 </g> 
 </g> 
 </g> 
 </g> 
 <g> 
 <g stroke="rgb(0.0%,39.21509%,0.0%)"> 
 <g fill="rgb(0.0%,39.21509%,0.0%)"> 
 <g fill="rgb(0.0%,39.21509%,0.0%)"> 
 <g fill-opacity="0.1"> 
 <path d=" M  16.9648 51.25063 L  15.50668 46.87585 L  19.88123 45.41754 L  21.33955 49.7923 Z  " /> 
 </g> 
 </g> 
 </g> 
 </g> 
 </g> 
 <g> 
 <g stroke="rgb(0.0%,39.21509%,0.0%)"> 
 <g fill="rgb(0.0%,39.21509%,0.0%)"> 
 <g fill="rgb(0.0%,39.21509%,0.0%)"> 
 <g fill-opacity="0.1"> 
 <path d=" M  61.02995 16.2886 L  58.96771 20.41307 L  54.84325 18.35083 L  56.90549 14.22636 Z  " /> 
 </g> 
 </g> 
 </g> 
 </g> 
 </g> 
 <g> 
 <g stroke="rgb(60.00061%,19.9997%,0.0%)"> 
 <g fill="rgb(60.00061%,19.9997%,0.0%)"> 
 <g fill="rgb(60.00061%,19.9997%,0.0%)"> 
 <g fill-opacity="0.1"> 
 <path d=" M  42.67911 42.67911 L  0.0 -14.22636 L  85.35823 28.45274 Z  " style="stroke:none"/> 
 </g> 
 </g> 
 </g> 
 </g> 
 </g> 
 <path d=" M  -48.74338 -79.21754 L  -41.17151 -69.12172 L  -33.59964 -59.0259 L  -26.02777 -48.93007 L  -18.4559 -38.83424 L  -10.88403 -28.7384 L  -3.31215 -18.64258 L  4.2597 -8.54675 L  11.83157 1.54906 L  19.40344 11.64488 L  26.97531 21.7407 L  34.54718 31.83653 L  42.11905 41.93236 L  49.69092 52.02818 L  57.26279 62.12401 L  64.83466 72.21985 L  72.40652 82.31567 L  79.9784 92.4115 L  87.55026 102.50732 L  95.12213 112.60315 L  102.69402 122.69897 L  110.26588 132.7948 L  117.83775 142.89063 L  125.40962 152.98645 L  132.98149 163.08228  " style="fill:none"/> 
 <path d=" M  -48.74338 -38.59805 L  -41.17151 -34.81201 L  -33.59964 -31.02618 L  -26.02777 -27.24014 L  -18.4559 -23.45432 L  -10.88403 -19.66827 L  -3.31215 -15.88245 L  4.2597 -12.0964 L  11.83157 -8.31058 L  19.40344 -4.52454 L  26.97531 -0.73871 L  34.54718 3.0471 L  42.11905 6.83315 L  49.69092 10.61897 L  57.26279 14.40501 L  64.83466 18.19084 L  72.40652 21.97688 L  79.9784 25.76271 L  87.55026 29.54875 L  95.12213 33.33458 L  102.69402 37.12064 L  110.26588 40.90645 L  117.83775 44.6925 L  125.40962 48.47833 L  132.98149 52.26437  " style="fill:none"/> 
 <path d=" M  -48.74338 73.15327 L  -41.17151 70.62932 L  -33.59964 68.10536 L  -26.02777 65.5814 L  -18.4559 63.05745 L  -10.88403 60.5335 L  -3.31215 58.00954 L  4.2597 55.48558 L  11.83157 52.96162 L  19.40344 50.43767 L  26.97531 47.91371 L  34.54718 45.38976 L  42.11905 42.8658 L  49.69092 40.34184 L  57.26279 37.81789 L  64.83466 35.29393 L  72.40652 32.76997 L  79.9784 30.24602 L  87.55026 27.72206 L  95.12213 25.1981 L  102.69402 22.67413 L  110.26588 20.15018 L  117.83775 17.62622 L  125.40962 15.10226 L  132.98149 12.57831  " style="fill:none"/> 
 <g> 
 <g stroke="rgb(100.0%,0.0%,0.0%)"> 
 <g fill="rgb(100.0%,0.0%,0.0%)"> 
 <path d=" M  -48.74338 225.52411 L  -41.17151 210.38037 L  -33.59964 195.23663 L  -26.02777 180.09288 L  -18.4559 164.94914 L  -10.88403 149.8054 L  -3.31215 134.66167 L  4.2597 119.51793 L  11.83157 104.37419 L  19.40344 89.23045 L  26.97531 74.0867 L  34.54718 58.94296 L  42.11905 43.79922 L  49.69092 28.65549 L  57.26279 13.51175 L  64.83466 -1.63197 L  72.40652 -16.77573 L  79.9784 -31.91946 L  87.55026 -47.0632 L  95.12213 -62.20694 L  102.69402 -77.35068 L  110.26588 -92.49442 L  117.83775 -107.63815 L  125.40962 -122.7819 L  132.98149 -137.92564  " style="fill:none"/> 
 </g> 
 </g> 
 </g> 
 <g> 
 <g stroke="rgb(100.0%,0.0%,0.0%)"> 
 <g fill="rgb(100.0%,0.0%,0.0%)"> 
 <path d=" M  -48.74338 129.02895 L  -41.17151 123.34999 L  -33.59964 117.67104 L  -26.02777 111.99208 L  -18.4559 106.31334 L  -10.88403 100.63438 L  -3.31215 94.95543 L  4.2597 89.27647 L  11.83157 83.59773 L  19.40344 77.91878 L  26.97531 72.2398 L  34.54718 66.56085 L  42.11905 60.88211 L  49.69092 55.20316 L  57.26279 49.5242 L  64.83466 43.84525 L  72.40652 38.1665 L  79.9784 32.48755 L  87.55026 26.8086 L  95.12213 21.12964 L  102.69402 15.4509 L  110.26588 9.77194 L  117.83775 4.09299 L  125.40962 -1.58574 L  132.98149 -7.2647  " style="fill:none"/> 
 </g> 
 </g> 
 </g> 
 <g> 
 <g stroke="rgb(100.0%,0.0%,0.0%)"> 
 <g fill="rgb(100.0%,0.0%,0.0%)"> 
 <path d=" M  -48.74338 -160.45651 L  -41.17151 -137.7409 L  -33.59964 -115.0253 L  -26.02777 -92.3097 L  -18.4559 -69.59407 L  -10.88403 -46.87846 L  -3.31215 -24.16286 L  4.2597 -1.44725 L  11.83157 21.26836 L  19.40344 43.98396 L  26.97531 66.69957 L  34.54718 89.41518 L  42.11905 112.13078 L  49.69092 134.8464 L  57.26279 157.56201 L  64.83466 180.27762 L  72.40652 202.99323 L  79.9784 225.70883 L  87.55026 248.42445 L  95.12213 271.14006 L  102.69402 293.85567 L  110.26588 316.57127 L  117.83775 339.2869 L  125.40962 362.0025 L  132.98149 384.71811  " style="fill:none"/> 
 </g> 
 </g> 
 </g> 
 <g> 
 <g stroke="rgb(60.00061%,19.9997%,0.0%)"> 
 <g fill="rgb(60.00061%,19.9997%,0.0%)"> 
 <path d=" M  42.67911 42.67911 L  0.0 -14.22636  " style="fill:none"/> 
 </g> 
 </g> 
 </g> 
 <g> 
 <g stroke="rgb(60.00061%,19.9997%,0.0%)"> 
 <g fill="rgb(60.00061%,19.9997%,0.0%)"> 
 <path d=" M  0.0 -14.22636 L  85.35823 28.45274  " style="fill:none"/> 
 </g> 
 </g> 
 </g> 
 <g> 
 <g stroke="rgb(60.00061%,19.9997%,0.0%)"> 
 <g fill="rgb(60.00061%,19.9997%,0.0%)"> 
 <path d=" M  85.35823 28.45274 L  42.67911 42.67911  " style="fill:none"/> 
 </g> 
 </g> 
 </g> 
 <g> 
 <g fill="rgb(0.0%,0.0%,100.0%)"> 
 <path d=" M  42.67911 42.67911 M  43.92911 42.67911 C  43.92911 43.36946 43.36946 43.92911 42.67911 43.92911 C  41.98875 43.92911 41.42911 43.36946 41.42911 42.67911 C  41.42911 41.98875 41.98875 41.42911 42.67911 41.42911 C  43.36946 41.42911 43.92911 41.98875 43.92911 42.67911 Z M  42.67911 42.67911  " /> 
 </g> 
 </g> 
 <g> 
 <g stroke="rgb(0.0%,0.0%,100.0%)"> 
 <g fill="rgb(0.0%,0.0%,100.0%)"> 
 <path d=" M  44.29503 46.59865  " style="fill:none"/> 
 <g> 
 <g> 
 <g transform="matrix(1.0,0.0,0.0,1.0,41.28807,44.20699)"> 
 <g fill="rgb(0.0%,0.0%,100.0%)"> 
 <text style="stroke:none" transform="scale(1,-1) translate(3.00696,0)" text-anchor="middle"  font-size="7"> 
<tspan font-family="cmmi" font-size="7">A</tspan></text> 
</g> 
 </g> 
 </g> 
 </g> 
 </g> 
 </g> 
 </g> 
 <g> 
 <g fill="rgb(0.0%,0.0%,100.0%)"> 
 <path d=" M  0.0 -14.22636 M  1.25 -14.22636 C  1.25 -13.53601 0.69035 -12.97636 0.0 -12.97636 C  -0.69035 -12.97636 -1.25 -13.53601 -1.25 -14.22636 C  -1.25 -14.91672 -0.69035 -15.47636 0.0 -15.47636 C  0.69035 -15.47636 1.25 -14.91672 1.25 -14.22636 Z M  0.0 -14.22636  " /> 
 </g> 
 </g> 
 <g> 
 <g stroke="rgb(0.0%,0.0%,100.0%)"> 
 <g fill="rgb(0.0%,0.0%,100.0%)"> 
 <path d=" M  1.47134 -10.3548  " style="fill:none"/> 
 <g> 
 <g> 
 <g transform="matrix(1.0,0.0,0.0,1.0,-1.72015,-12.74646)"> 
 <g fill="rgb(0.0%,0.0%,100.0%)"> 
 <text style="stroke:none" transform="scale(1,-1) translate(3.1915,0)" text-anchor="middle"  font-size="7"> 
<tspan font-family="cmmi" font-size="7">B</tspan></text> 
</g> 
 </g> 
 </g> 
 </g> 
 </g> 
 </g> 
 </g> 
 <g> 
 <g fill="rgb(0.0%,0.0%,100.0%)"> 
 <path d=" M  85.35823 28.45274 M  86.60823 28.45274 C  86.60823 29.1431 86.04858 29.70274 85.35823 29.70274 C  84.66788 29.70274 84.10823 29.1431 84.10823 28.45274 C  84.10823 27.76239 84.66788 27.20274 85.35823 27.20274 C  86.04858 27.20274 86.60823 27.76239 86.60823 28.45274 Z M  85.35823 28.45274  " /> 
 </g> 
 </g> 
 <g> 
 <g stroke="rgb(0.0%,0.0%,100.0%)"> 
 <g fill="rgb(0.0%,0.0%,100.0%)"> 
 <path d=" M  86.90164 32.4691  " style="fill:none"/> 
 <g> 
 <g> 
 <g transform="matrix(1.0,0.0,0.0,1.0,83.78865,30.07744)"> 
 <g fill="rgb(0.0%,0.0%,100.0%)"> 
 <text style="stroke:none" transform="scale(1,-1) translate(3.11299,0)" text-anchor="middle"  font-size="7"> 
<tspan font-family="cmmi" font-size="7">C</tspan></text> 
</g> 
 </g> 
 </g> 
 </g> 
 </g> 
 </g> 
 </g> 
 <g> 
 <g stroke="rgb(0.0%,0.0%,0.0%)"> 
 <g fill="rgb(0.0%,0.0%,0.0%)"> 
 <path d=" M  76.6847 92.68327  " style="fill:none"/> 
 <g> 
 <g> 
 <g transform="matrix(1.0,0.0,0.0,1.0,74.34265,90.93327)"> 
 <g fill="rgb(0.0%,0.0%,0.0%)"> 
 <text style="stroke:none" transform="scale(1,-1) translate(2.34204,0)" text-anchor="middle"  font-size="7"> 
<tspan font-family="cmmi" font-size="7">f</tspan></text> 
</g> 
 </g> 
 </g> 
 </g> 
 </g> 
 </g> 
 </g> 
 <g> 
 <g stroke="rgb(0.0%,0.0%,0.0%)"> 
 <g fill="rgb(0.0%,0.0%,0.0%)"> 
 <path d=" M  -47.00436 -33.8317  " style="fill:none"/> 
 <g> 
 <g> 
 <g transform="matrix(1.0,0.0,0.0,1.0,-49.08058,-34.6581)"> 
 <g fill="rgb(0.0%,0.0%,0.0%)"> 
 <text style="stroke:none" transform="scale(1,-1) translate(2.07622,0)" text-anchor="middle"  font-size="7"> 
<tspan font-family="cmmi" font-size="7">g</tspan></text> 
</g> 
 </g> 
 </g> 
 </g> 
 </g> 
 </g> 
 </g> 
 <g> 
 <g stroke="rgb(0.0%,0.0%,0.0%)"> 
 <g fill="rgb(0.0%,0.0%,0.0%)"> 
 <path d=" M  -47.00436 70.72787  " style="fill:none"/> 
 <g> 
 <g> 
 <g transform="matrix(1.0,0.0,0.0,1.0,-49.34523,68.29733)"> 
 <g fill="rgb(0.0%,0.0%,0.0%)"> 
 <text style="stroke:none" transform="scale(1,-1) translate(2.34087,0)" text-anchor="middle"  font-size="7"> 
<tspan font-family="cmmi" font-size="7">h</tspan></text> 
</g> 
 </g> 
 </g> 
 </g> 
 </g> 
 </g> 
 </g> 
 <g> 
 <g stroke="rgb(100.0%,0.0%,0.0%)"> 
 <g fill="rgb(100.0%,0.0%,0.0%)"> 
 <path d=" M  20.38333 92.68327  " style="fill:none"/> 
 <g> 
 <g> 
 <g transform="matrix(1.0,0.0,0.0,1.0,18.96869,90.36731)"> 
 <g fill="rgb(100.0%,0.0%,0.0%)"> 
 <text style="stroke:none" transform="scale(1,-1) translate(1.41464,0)" text-anchor="middle"  font-size="7"> 
<tspan font-family="cmmi" font-size="7">i</tspan></text> 
</g> 
 </g> 
 </g> 
 </g> 
 </g> 
 </g> 
 </g> 
 <g> 
 <g stroke="rgb(100.0%,0.0%,0.0%)"> 
 <g fill="rgb(100.0%,0.0%,0.0%)"> 
 <path d=" M  2.99306 92.68327  " style="fill:none"/> 
 <g> 
 <g> 
 <g transform="matrix(1.0,0.0,0.0,1.0,1.13628,91.04785)"> 
 <g fill="rgb(100.0%,0.0%,0.0%)"> 
 <text style="stroke:none" transform="scale(1,-1) translate(1.85678,0)" text-anchor="middle"  font-size="7"> 
<tspan font-family="cmmi" font-size="7">j</tspan></text> 
</g> 
 </g> 
 </g> 
 </g> 
 </g> 
 </g> 
 </g> 
 <g> 
 <g stroke="rgb(100.0%,0.0%,0.0%)"> 
 <g fill="rgb(100.0%,0.0%,0.0%)"> 
 <path d=" M  37.77382 92.68327  " style="fill:none"/> 
 <g> 
 <g> 
 <g transform="matrix(1.0,0.0,0.0,1.0,35.56374,90.25273)"> 
 <g fill="rgb(100.0%,0.0%,0.0%)"> 
 <text style="stroke:none" transform="scale(1,-1) translate(2.21008,0)" text-anchor="middle"  font-size="7"> 
<tspan font-family="cmmi" font-size="7">k</tspan></text> 
</g> 
 </g> 
 </g> 
 </g> 
 </g> 
 </g> 
 </g> 
 <g> 
 <g fill="rgb(26.66626%,26.66626%,26.66626%)"> 
 <path d=" M  28.45274 71.13185 M  29.20274 71.13185 C  29.20274 71.54607 28.86696 71.88185 28.45274 71.88185 C  28.03853 71.88185 27.70274 71.54607 27.70274 71.13185 C  27.70274 70.71764 28.03853 70.38185 28.45274 70.38185 C  28.86696 70.38185 29.20274 70.71764 29.20274 71.13185 Z M  28.45274 71.13185  " /> 
 </g> 
 </g> 
 <g> 
 <g stroke="rgb(26.66626%,26.66626%,26.66626%)"> 
 <g fill="rgb(26.66626%,26.66626%,26.66626%)"> 
 <path d=" M  29.94818 74.20589  " style="fill:none"/> 
 <g> 
 <g> 
 <g transform="matrix(1.0,0.0,0.0,1.0,26.7993,71.81422)"> 
 <g fill="rgb(26.66626%,26.66626%,26.66626%)"> 
 <text style="stroke:none" transform="scale(1,-1) translate(3.14888,0)" text-anchor="middle"  font-size="7"> 
<tspan font-family="cmmi" font-size="7">O</tspan></text> 
</g> 
 </g> 
 </g> 
 </g> 
 </g> 
 </g> 
 </g> 
 <g> 
 <g stroke="rgb(60.00061%,19.9997%,0.0%)"> 
 <g fill="rgb(60.00061%,19.9997%,0.0%)"> 
 <path d=" M  19.51393 18.77412  " style="fill:none"/> 
 <g> 
 <g> 
 <g transform="matrix(1.0,0.0,0.0,1.0,15.77565,17.76718)"> 
 <g fill="rgb(60.00061%,19.9997%,0.0%)"> 
 <text style="stroke:none" transform="scale(1,-1) translate(3.73828,0)" text-anchor="middle"  font-size="7"> 
<tspan font-family="cmmi" font-size="7">c</tspan><tspan baseline-shift="sub"><tspan font-family="cmr" font-size="5">1</tspan></tspan></text> 
</g> 
 </g> 
 </g> 
 </g> 
 </g> 
 </g> 
 </g> 
 <g> 
 <g stroke="rgb(60.00061%,19.9997%,0.0%)"> 
 <g fill="rgb(60.00061%,19.9997%,0.0%)"> 
 <path d=" M  45.16464 6.60088  " style="fill:none"/> 
 <g> 
 <g> 
 <g transform="matrix(1.0,0.0,0.0,1.0,41.0444,5.59393)"> 
 <g fill="rgb(60.00061%,19.9997%,0.0%)"> 
 <text style="stroke:none" transform="scale(1,-1) translate(4.12024,0)" text-anchor="middle"  font-size="7"> 
<tspan font-family="cmmi" font-size="7">a</tspan><tspan baseline-shift="sub"><tspan font-family="cmr" font-size="5">1</tspan></tspan></text> 
</g> 
 </g> 
 </g> 
 </g> 
 </g> 
 </g> 
 </g> 
 <g> 
 <g stroke="rgb(60.00061%,19.9997%,0.0%)"> 
 <g fill="rgb(60.00061%,19.9997%,0.0%)"> 
 <path d=" M  66.03314 41.38164  " style="fill:none"/> 
 <g> 
 <g> 
 <g transform="matrix(1.0,0.0,0.0,1.0,62.3234,39.4511)"> 
 <g fill="rgb(60.00061%,19.9997%,0.0%)"> 
 <text style="stroke:none" transform="scale(1,-1) translate(3.70975,0)" text-anchor="middle"  font-size="7"> 
<tspan font-family="cmmi" font-size="7">b</tspan><tspan baseline-shift="sub"><tspan font-family="cmr" font-size="5">1</tspan> </tspan></text> 
</g> 
 </g> 
 </g> 
 </g> 
 </g> 
 </g> 
 </g> 
 </g> 
 </g> 
 </g> 
 </g> 
 </g> 
 </g> 
 </g> 
 </g> 
 
                                                                             </g> 
</svg>

<?xml-stylesheet href="TE_export636161384928920110.css" type="text/css"?>
<svg xmlns="http://www.w3.org/2000/svg" width="365pt" height="274pt" viewBox="-48.9 -41.9 182.7 137.2">
  <g stroke-linejoin="round" transform="matrix(1 0 0 -1 0 53.5)" stroke-linecap="round" stroke-width=".5" stroke="#000">
    <path d="M-48.7-28.500000000000004H133M-48.7-14.2H133M-48.7 0H133M-48.7 14.2H133M-48.7 28.5H133M-48.7 42.7H133M-48.7 56.9H133M-48.7 71.1H133M-48.7 85.4H133m-175.7-127V94.1m14.2-135.9V94.2m14.3-135.9V94.2M0-41.7V94.2M14.2-41.7V94.2M28.5-41.7V94.2M42.7-41.7V94.2M56.9-41.7V94.2M71.1-41.7V94.2M85.4-41.7V94.2M99.6-41.7V94.2m14.2-135.9V94.2M128-41.7V94.2" fill="none" stroke="silver"/>
    <clipPath id="a">
      <path d="M-48.7-41.7v137h182.4v-137zm182.4 137"/>
    </clipPath>
    <g clip-path="url(#a)">
      <path d="M48.4 50.4l3.7-2.8 2.8 3.7-3.7 2.8zM17 51.3l-1.5-4.4 4.4-1.5 1.4 4.4zM61 16.3l-2 4.1-4.2-2 2.1-4.2z" fill-opacity=".1" fill="#006400" stroke="#006400"/>
      <path d="M42.7 42.7L0-14.3l85.4 42.8z" stroke="none" fill-opacity=".1" fill="#930"/>
      <path d="M-48.7-79.2l7.5 10 7.6 10.2 7.6 10 7.5 10.2 7.6 10 7.6 10.2 7.6 10 7.5 10.1 7.6 10.1L27 21.7l7.5 10.1L42.1 42 49.7 52l7.6 10.1 7.5 10.1 7.6 10.1L80 92.4l7.6 10.1 7.5 10.1 7.6 10.1 7.6 10 7.5 10.2 7.6 10 7.6 10.2" fill="none"/>
      <path d="M-48.7-38.6l7.5 3.8 7.6 3.8 7.6 3.8 7.5 3.7 7.6 3.8 7.6 3.8L4.3-12l7.5 3.8 7.6 3.8L27-.7 34.5 3l7.6 3.8 7.6 3.8 7.6 3.8 7.5 3.8 7.6 3.8 7.6 3.8 7.6 3.7 7.5 3.8 7.6 3.8 7.6 3.8 7.5 3.8 7.6 3.8 7.6 3.8" fill="none"/>
      <path d="M-48.7 73.2l7.5-2.6 7.6-2.5 7.6-2.5 7.5-2.5 7.6-2.6 7.6-2.5 7.6-2.5 7.5-2.5 7.6-2.6L27 48l7.5-2.5 7.6-2.5 7.6-2.6 7.6-2.5 7.5-2.5 7.6-2.5 7.6-2.6 7.6-2.5 7.5-2.5 7.6-2.5 7.6-2.5 7.5-2.6 7.6-2.5 7.6-2.5" fill="none"/>
      <path d="M-48.7 225.5l7.5-15.1 7.6-15.2 7.6-15.1 7.5-15.2 7.6-15 7.6-15.2 7.6-15.2 7.5-15.1 7.6-15.2L27 74.1l7.5-15.2 7.6-15.1 7.6-15.1 7.6-15.2 7.5-15.1 7.6-15.2L80-31.9l7.6-15.2L95-62.2l7.6-15.2 7.6-15 7.5-15.2 7.6-15.2 7.6-15.1" fill="none" stroke="red"/>
      <path d="M-48.7 129l7.5-5.7 7.6-5.6 7.6-5.7 7.5-5.7 7.6-5.7 7.6-5.6 7.6-5.7 7.5-5.7 7.6-5.7 7.6-5.7 7.5-5.6 7.6-5.7 7.6-5.7 7.6-5.7 7.5-5.7 7.6-5.6 7.6-5.7 7.6-5.7 7.5-5.7 7.6-5.6 7.6-5.7 7.5-5.7 7.6-5.7 7.6-5.7" fill="none" stroke="red"/>
      <path d="M-48.7-160.5l7.5 22.8 7.6 22.7 7.6 22.7 7.5 22.7 7.6 22.7 7.6 22.7L4.3-1.4l7.5 22.7L19.4 44 27 66.7l7.5 22.7 7.6 22.7 7.6 22.7 7.6 22.8 7.5 22.7 7.6 22.7 7.6 22.7 7.6 22.7 7.5 22.7 7.6 22.8 7.6 22.7 7.5 22.7 7.6 22.7 7.6 22.7" fill="none" stroke="red"/>
      <path d="M42.7 42.7L0-14.3M0-14.2l85.4 42.7M85.4 28.5L42.7 42.7" fill="none" stroke="#930"/>
      <path d="M43.900000000000006 42.7a1.3 1.3 0 1 1-2.5 0 1.3 1.3 0 0 1 2.5 0zm-1.2 0" fill="#00F"/>
      <text transform="matrix(1 0 0 -1 44.3 44.2)" text-anchor="middle" font-size="7" stroke="none" fill="#00F">
        <tspan font-family="cmmi">A</tspan>
      </text>
      <path d="M1.3-14.2a1.3 1.3 0 1 1-2.6 0 1.3 1.3 0 0 1 2.5 0zm-1.3 0" fill="#00F"/>
      <text transform="matrix(1 0 0 -1 1.5 -12.7)" text-anchor="middle" font-size="7" stroke="none" fill="#00F">
        <tspan font-family="cmmi">B</tspan>
      </text>
      <path d="M86.60000000000001 28.5a1.3 1.3 0 1 1-2.5 0 1.3 1.3 0 0 1 2.5 0zm-1.2 0" fill="#00F"/>
      <text transform="matrix(1 0 0 -1 86.9 30)" text-anchor="middle" font-size="7" stroke="none" fill="#00F">
        <tspan font-family="cmmi">C</tspan>
      </text>
      <text transform="matrix(1 0 0 -1 76.7 91)" text-anchor="middle" font-size="7" stroke="none">
        <tspan font-family="cmmi">f</tspan>
      </text>
      <text transform="matrix(1 0 0 -1 -47 -34.7)" text-anchor="middle" font-size="7" stroke="none">
        <tspan font-family="cmmi">g</tspan>
      </text>
      <text transform="matrix(1 0 0 -1 -47 68.3)" text-anchor="middle" font-size="7" stroke="none">
        <tspan font-family="cmmi">h</tspan>
      </text>
      <text transform="matrix(1 0 0 -1 20.4 90.4)" text-anchor="middle" font-size="7" stroke="none" fill="red">
        <tspan font-family="cmmi">i</tspan>
      </text>
      <text transform="matrix(1 0 0 -1 3 91)" text-anchor="middle" font-size="7" stroke="none" fill="red">
        <tspan font-family="cmmi">j</tspan>
      </text>
      <text transform="matrix(1 0 0 -1 37.8 90.3)" text-anchor="middle" font-size="7" stroke="none" fill="red">
        <tspan font-family="cmmi">k</tspan>
      </text>
      <path d="M29.2 71.1a.7.7 0 1 1-1.5 0 .7.7 0 0 1 1.5 0zm-.7 0" fill="#444"/>
      <text transform="matrix(1 0 0 -1 30 71.8)" text-anchor="middle" font-size="7" stroke="none" fill="#444">
        <tspan font-family="cmmi">O</tspan>
      </text>
      <text transform="matrix(1 0 0 -1 19.5 17.8)" text-anchor="middle" font-size="7" stroke="none" fill="#930">
        <tspan font-family="cmmi">c</tspan><tspan baseline-shift="sub"><tspan font-family="cmr" font-size="5">1</tspan></tspan>
      </text>
      <text transform="matrix(1 0 0 -1 45.2 5.6)" text-anchor="middle" font-size="7" stroke="none" fill="#930">
        <tspan font-family="cmmi">a</tspan><tspan baseline-shift="sub"><tspan font-family="cmr" font-size="5">1</tspan></tspan>
      </text>
      <text transform="matrix(1 0 0 -1 66 39.5)" text-anchor="middle" font-size="7" stroke="none" fill="#930">
        <tspan font-family="cmmi">b</tspan><tspan baseline-shift="sub"><tspan font-family="cmr" font-size="5">1</tspan></tspan>
      </text>
    </g>
  </g>
</svg>
